assets/graphics/logo.svg

<svg xmlns="http://www.w3.org/2000/svg" width="24px" height="24px" viewBox="0 0 100 100" fill-rule="evenodd" stroke-linejoin="round" stroke-miterlimit="2" xmlns:v="https://vecta.io/nano"><circle cx="50" cy="50" r="41.639" fill="#f5f5f5"/><path d="M86.747 33.133h-.602v.602H84.94v.602h-1.205v.603H82.53v.602h-1.205v.603H80.12v.602h-1.204v.602h-1.205v.603h-1.205v.602h-1.205v.603h-1.205v.602h-1.204v.602h-1.205v.603h-1.205v.602h-1.205v.603h-1.205v.602h-1.205v.602h-1.204v.603h-1.205v.602h-1.205v.603h-.602v1.205h-.603v1.807h1.205v.602h4.217v.603h.602v-.603h1.808v.603h.602v-.603h3.012v.603h.602v-.603h1.205v.603h.603v1.807H62.651v.602h-.603v-.602h-5.422v.602h-.602v-.602h-3.012v.602h-.602v.603h-.603v1.204h-.602v.603h.602v.602h-.602v1.808h.602v.602h-.602v3.012h.602v.602h-.602v2.41h.602v.602h-.602v1.205h.602v.603h-.602v3.012h-1.807V67.47h-.603v-.603h.603v-.602h-.603V65.06h.603v-1.205h-.603v-.602h.603v-.602h-.603v-.603h.603v-.602h-.603v-.603h.603v-.602h-.603v-3.614H47.59v-.603h-.602v.603h-.602v-.603h-.603v.603h-1.205v1.204h-1.205v1.205h-.602v.603h-1.205v1.204h-.602v.603h-1.205v1.205h-1.205v1.204h-1.205v.603h-.602v1.205h-.602v.602H34.94v1.205h-1.205v1.205h-.602v.602h-1.205v1.205h-.603v.602H30.12v1.205h-1.204v1.205h-1.205v1.205h-1.205v1.205h-1.807v-.603h-.603v-.602h.603v-1.205h.602v-.602h1.205v-1.205h1.205v-.603h.602V69.88h.603v-.603h.602v-.602h1.205V67.47h.602v-.603h.603v-.602h1.205V65.06h.602v-.602h.602v-.603h.603v-.602h.602v-2.41h-.602v-.602h-3.012v.602H30.12v.603h-.602v.602h-1.205v.603h-1.205v.602h-1.807v.602h-.602v.603h-1.807v.602h-.603v.603h-1.205v.602H19.88v.602h-1.205v.603H17.47v.602h-1.205v.603h-2.41V67.47h.603v-1.205h1.807v-.602h.602v-.603h1.808v-.602h1.205v-.603h1.204v-.602h.603v-.602h1.807v-.603h1.205v-.602h.602v-.603h1.807v-.602h1.205v-.602h.603v-.603h1.204v-.602h1.808v-.603h1.205v-.602h.602v-.602h1.807v-.603h.603v-.602h1.204v-.603h.603v-1.205h.602v-.602h-.602v-1.205h-1.205v-.602H24.699v-.603h-.603v-1.204h1.205v-.603h1.205v.603h.602v-.603h1.205v.603h.603v-.603h1.204v.603h.603v-.603h2.41v.603h.602v-.603h2.41v.603h.602v-.603h1.205v.603h.602v-.603h2.41v.603h.602v-.603h1.205v.603h.602v-.603h1.205v.603h.603v-.603h2.409v-.602h1.205v-.603h.603v-.602h-.603v-1.205h.603v-.602h-.603v-.603h.603v-.602h-.603v-.603h.603v-1.204h-.603v-.603h.603v-.602h-.603v-.603h.603v-.602h-.603v-1.205h.603v-.602h-.603v-.603h.603v-.602h-.603v-.602h.603V34.94h-.603v-.603h.603v-.602h-.603v-.602h.603v-.603h-.603v-.602H50v-.603h.602v.603h.603v2.409h.602v.603h-.602v1.205h.602v.602h-.602v1.807h.602v.603h-.602v2.409h.602v.603h-.602v.602h.602v.602h.603v.603h2.409v-.603h.603v-.602h1.204v-1.205h.603v-.602h1.205v-.603h.602v-.602h.603v-.602h.602v-1.205h.602v-.603h1.205v-.602h.603v-1.205h.602v-.602h1.205v-1.205h1.205v-.602h.602v-.603h.602v-.602h.603v-1.205h.602v-.602h1.205v-1.205h1.205v-.603h.602v-.602h.603v-1.205h1.205v-.602h.602v-.603h.602v-1.205h1.808v1.205h.602v.603h-.602v.602h-1.205v1.205h-.603v.602h-.602v.603h-1.205v1.205h-1.205v.602h-.602v1.205h-.602v.602h-1.205v1.205H67.47v1.205h-.603v.602h-.602v.603h-.602v.602h-.603v3.012h.603v.602h1.204v-.602h2.41v-.602h1.205v-.603h1.205v-.602h1.205v-.603h.602v-.602h1.807v-.602h1.205v-.603h.602v-.602h1.808v-.603h1.204v-.602h1.205v-.602h1.205v-.603h.603v-.602h1.807v-.603h1.205v1.205h.602v.603zM100 45.783v-1.205h-.602v-3.614h-.603v-2.41h-.602v-2.409h-.603v-1.808h-.602v-2.409h-.602v-1.205h-.603v-1.205h-.602v-1.205h-.603v-.602h-.602v-.603h.602v-.602h-.602v-.602h-.603v-1.205h-.602v-.603h-.602v-1.205h-.603v-.602h-.602v-1.205h-.603v-.602h-.602v-.602h-.602v-1.205h-.603v-.603h-.602v-.602h-.603v-.603h-.602v-.602h-.602v-.602h-.603v-.603h-.602v-.602h-.603v-.603h-.602v-.602h-.602v-.602h-.603v-.603h-.602v-.602h-.603v-.603H80.12v-.602h-.602v-.602h-1.205v-.603h-.602v-.602h-1.205v-.603h-.602v-.602h-1.205v-.602h-1.205v-.603h-1.205v-.602h-.602v-.603h-2.41v-.602h-.602v-.603h-1.808v-.602H65.06V2.41h-1.807v-.603h-.602v.603h-.603v-.603h-1.205v-.602h-3.614V.602h-.603v.603h-.602V.602H52.41V0h-.603v.602h-.602V0h-.603v.602h-2.409V0h-.603v.602h-4.217v.603h-4.216v.602h-1.205v.603H34.94v.602h-1.205v.602h-1.807v.603H30.12v.602h-1.204v.603h-1.205v.602h-1.205v.603h-.602v.602h-1.205v.602h-1.205v.603h-.602v.602h-1.205v.603h-.603v.602H19.88v.602h-.603v.603h-.602v.602h-.603v.603h-.602v.602h-1.205v.602h-.602v1.205h-1.205v.603h-.603v1.204h-1.204v1.205h-.603v.603h-.602v.602h-.603v.603h-.602v1.204h-.603v.603h-.602v1.204h-.602v1.205h-.603v.603h-.602v.602h-.602v1.205h-.603v1.205h-.602v1.205h-.603v1.205h-.602v1.807h-.603v1.205h-.602v2.409H2.41v1.205h-.603v.602h.603v.603h-.603v1.807h-.602v3.012H.602v.602h.603v.603H.602v7.229H0v.602h.602v5.422h.603v3.012h.602v3.012h.603v1.807h.602v1.807h.602v1.205h.603v1.808h.602v1.204h.603v1.205h.602v1.205h.603v1.205h.602v1.205h.602v1.205h.603v.602h.602v.602h.602v.603h.603v1.204h.602v.603h.603v.602h.602v1.205h.603v.603h.602v.602h.602v.602h.603v.603h.602v.602h.603v.603h.602v.602h.602v.602h.603v.603h1.205v.602h.602v.603h.603v.602h1.204v.603h.603v.602h.602v.602h1.205v.603h.602v.602h1.205v.602h1.205v.603h.602v.602h1.808v.603h1.204v.602h1.205v.603h1.808v.602h1.204v.602h2.41v.603h1.807v.602h3.012v.603h3.615V100h.602v-.602h.603V100h.602v-.602h.602V100h.603v-.602h.602V100h4.217v-.602h.602V100h1.205v-.602h3.615v-.603h3.614v-.602h1.807v-.603h1.808v-.602h1.807v-.602h1.205v-.603h1.807v-.602h1.205v-.603h1.205v-.602h1.204v-.603h1.205v-.602h1.205v-.602h.602v-.603h.603v-.602h1.205v-.602h1.204v-.603h.603v-.602h.602v-.603h.603v-.602h.602v-.603h.603v-.602h1.204v-.602h.603V84.94h1.205v-1.205h1.204V82.53h.603v-.602h.602v-.603h.603v-.602h.602v-1.205h.602v-.602h.603v-.603h.602v-1.204h.603v-.603h.602v-1.205h.602v-1.205h.603v-.602h.602v-1.205h.603v-1.807h.602v-1.205h.603v-1.205h.602v-1.807h.602v-1.807h.603v-3.012h.602v-1.205h.603v-1.205h-.603v-.602h.603v-3.012H100v-1.205h-.602v-.603H100v-1.807h-.602v-.602H100v-1.807h-.602v-.603H100v-2.409h-.602v-.603H100z" fill-rule="nonzero"/></svg>

<svg width="100%" height="100%" viewBox="0 0 100 71" version="1.1" xmlns="http://www.w3.org/2000/svg" xmlns:xlink="http://www.w3.org/1999/xlink" xml:space="preserve" style="fill-rule:evenodd;clip-rule:evenodd;stroke-linejoin:round;stroke-miterlimit:2;">
    <g transform="matrix(1.37189,0,0,1.37189,-19.0076,-33.0571)">
        <path d="M86.747,33.133L86.145,33.133L86.145,33.735L84.94,33.735L84.94,34.337L83.735,34.337L83.735,34.94L82.53,34.94L82.53,35.542L81.325,35.542L81.325,36.145L80.12,36.145L80.12,36.747L78.916,36.747L78.916,37.349L77.711,37.349L77.711,37.952L76.506,37.952L76.506,38.554L75.301,38.554L75.301,39.157L74.096,39.157L74.096,39.759L72.892,39.759L72.892,40.361L71.687,40.361L71.687,40.964L70.482,40.964L70.482,41.566L69.277,41.566L69.277,42.169L68.072,42.169L68.072,42.771L66.867,42.771L66.867,43.373L65.663,43.373L65.663,43.976L64.458,43.976L64.458,44.578L63.253,44.578L63.253,45.181L62.651,45.181L62.651,46.386L62.048,46.386L62.048,48.193L63.253,48.193L63.253,48.795L67.47,48.795L67.47,49.398L68.072,49.398L68.072,48.795L69.88,48.795L69.88,49.398L70.482,49.398L70.482,48.795L73.494,48.795L73.494,49.398L74.096,49.398L74.096,48.795L75.301,48.795L75.301,49.398L75.904,49.398L75.904,51.205L62.651,51.205L62.651,51.807L62.048,51.807L62.048,51.205L56.626,51.205L56.626,51.807L56.024,51.807L56.024,51.205L53.012,51.205L53.012,51.807L52.41,51.807L52.41,52.41L51.807,52.41L51.807,53.614L51.205,53.614L51.205,54.217L51.807,54.217L51.807,54.819L51.205,54.819L51.205,56.627L51.807,56.627L51.807,57.229L51.205,57.229L51.205,60.241L51.807,60.241L51.807,60.843L51.205,60.843L51.205,63.253L51.807,63.253L51.807,63.855L51.205,63.855L51.205,65.06L51.807,65.06L51.807,65.663L51.205,65.663L51.205,68.675L49.398,68.675L49.398,67.47L48.795,67.47L48.795,66.867L49.398,66.867L49.398,66.265L48.795,66.265L48.795,65.06L49.398,65.06L49.398,63.855L48.795,63.855L48.795,63.253L49.398,63.253L49.398,62.651L48.795,62.651L48.795,62.048L49.398,62.048L49.398,61.446L48.795,61.446L48.795,60.843L49.398,60.843L49.398,60.241L48.795,60.241L48.795,56.627L47.59,56.627L47.59,56.024L46.988,56.024L46.988,56.627L46.386,56.627L46.386,56.024L45.783,56.024L45.783,56.627L44.578,56.627L44.578,57.831L43.373,57.831L43.373,59.036L42.771,59.036L42.771,59.639L41.566,59.639L41.566,60.843L40.964,60.843L40.964,61.446L39.759,61.446L39.759,62.651L38.554,62.651L38.554,63.855L37.349,63.855L37.349,64.458L36.747,64.458L36.747,65.663L36.145,65.663L36.145,66.265L34.94,66.265L34.94,67.47L33.735,67.47L33.735,68.675L33.133,68.675L33.133,69.277L31.928,69.277L31.928,70.482L31.325,70.482L31.325,71.084L30.12,71.084L30.12,72.289L28.916,72.289L28.916,73.494L27.711,73.494L27.711,74.699L26.506,74.699L26.506,75.904L24.699,75.904L24.699,75.301L24.096,75.301L24.096,74.699L24.699,74.699L24.699,73.494L25.301,73.494L25.301,72.892L26.506,72.892L26.506,71.687L27.711,71.687L27.711,71.084L28.313,71.084L28.313,69.88L28.916,69.88L28.916,69.277L29.518,69.277L29.518,68.675L30.723,68.675L30.723,67.47L31.325,67.47L31.325,66.867L31.928,66.867L31.928,66.265L33.133,66.265L33.133,65.06L33.735,65.06L33.735,64.458L34.337,64.458L34.337,63.855L34.94,63.855L34.94,63.253L35.542,63.253L35.542,60.843L34.94,60.843L34.94,60.241L31.928,60.241L31.928,60.843L30.12,60.843L30.12,61.446L29.518,61.446L29.518,62.048L28.313,62.048L28.313,62.651L27.108,62.651L27.108,63.253L25.301,63.253L25.301,63.855L24.699,63.855L24.699,64.458L22.892,64.458L22.892,65.06L22.289,65.06L22.289,65.663L21.084,65.663L21.084,66.265L19.88,66.265L19.88,66.867L18.675,66.867L18.675,67.47L17.47,67.47L17.47,68.072L16.265,68.072L16.265,68.675L13.855,68.675L13.855,67.47L14.458,67.47L14.458,66.265L16.265,66.265L16.265,65.663L16.867,65.663L16.867,65.06L18.675,65.06L18.675,64.458L19.88,64.458L19.88,63.855L21.084,63.855L21.084,63.253L21.687,63.253L21.687,62.651L23.494,62.651L23.494,62.048L24.699,62.048L24.699,61.446L25.301,61.446L25.301,60.843L27.108,60.843L27.108,60.241L28.313,60.241L28.313,59.639L28.916,59.639L28.916,59.036L30.12,59.036L30.12,58.434L31.928,58.434L31.928,57.831L33.133,57.831L33.133,57.229L33.735,57.229L33.735,56.627L35.542,56.627L35.542,56.024L36.145,56.024L36.145,55.422L37.349,55.422L37.349,54.819L37.952,54.819L37.952,53.614L38.554,53.614L38.554,53.012L37.952,53.012L37.952,51.807L36.747,51.807L36.747,51.205L24.699,51.205L24.699,50.602L24.096,50.602L24.096,49.398L25.301,49.398L25.301,48.795L26.506,48.795L26.506,49.398L27.108,49.398L27.108,48.795L28.313,48.795L28.313,49.398L28.916,49.398L28.916,48.795L30.12,48.795L30.12,49.398L30.723,49.398L30.723,48.795L33.133,48.795L33.133,49.398L33.735,49.398L33.735,48.795L36.145,48.795L36.145,49.398L36.747,49.398L36.747,48.795L37.952,48.795L37.952,49.398L38.554,49.398L38.554,48.795L40.964,48.795L40.964,49.398L41.566,49.398L41.566,48.795L42.771,48.795L42.771,49.398L43.373,49.398L43.373,48.795L44.578,48.795L44.578,49.398L45.181,49.398L45.181,48.795L47.59,48.795L47.59,48.193L48.795,48.193L48.795,47.59L49.398,47.59L49.398,46.988L48.795,46.988L48.795,45.783L49.398,45.783L49.398,45.181L48.795,45.181L48.795,44.578L49.398,44.578L49.398,43.976L48.795,43.976L48.795,43.373L49.398,43.373L49.398,42.169L48.795,42.169L48.795,41.566L49.398,41.566L49.398,40.964L48.795,40.964L48.795,40.361L49.398,40.361L49.398,39.759L48.795,39.759L48.795,38.554L49.398,38.554L49.398,37.952L48.795,37.952L48.795,37.349L49.398,37.349L49.398,36.747L48.795,36.747L48.795,36.145L49.398,36.145L49.398,34.94L48.795,34.94L48.795,34.337L49.398,34.337L49.398,33.735L48.795,33.735L48.795,33.133L49.398,33.133L49.398,32.53L48.795,32.53L48.795,31.928L50,31.928L50,31.325L50.602,31.325L50.602,31.928L51.205,31.928L51.205,34.337L51.807,34.337L51.807,34.94L51.205,34.94L51.205,36.145L51.807,36.145L51.807,36.747L51.205,36.747L51.205,38.554L51.807,38.554L51.807,39.157L51.205,39.157L51.205,41.566L51.807,41.566L51.807,42.169L51.205,42.169L51.205,42.771L51.807,42.771L51.807,43.373L52.41,43.373L52.41,43.976L54.819,43.976L54.819,43.373L55.422,43.373L55.422,42.771L56.626,42.771L56.626,41.566L57.229,41.566L57.229,40.964L58.434,40.964L58.434,40.361L59.036,40.361L59.036,39.759L59.639,39.759L59.639,39.157L60.241,39.157L60.241,37.952L60.843,37.952L60.843,37.349L62.048,37.349L62.048,36.747L62.651,36.747L62.651,35.542L63.253,35.542L63.253,34.94L64.458,34.94L64.458,33.735L65.663,33.735L65.663,33.133L66.265,33.133L66.265,32.53L66.867,32.53L66.867,31.928L67.47,31.928L67.47,30.723L68.072,30.723L68.072,30.121L69.277,30.121L69.277,28.916L70.482,28.916L70.482,28.313L71.084,28.313L71.084,27.711L71.687,27.711L71.687,26.506L72.892,26.506L72.892,25.904L73.494,25.904L73.494,25.301L74.096,25.301L74.096,24.096L75.904,24.096L75.904,25.301L76.506,25.301L76.506,25.904L75.904,25.904L75.904,26.506L74.699,26.506L74.699,27.711L74.096,27.711L74.096,28.313L73.494,28.313L73.494,28.916L72.289,28.916L72.289,30.121L71.084,30.121L71.084,30.723L70.482,30.723L70.482,31.928L69.88,31.928L69.88,32.53L68.675,32.53L68.675,33.735L67.47,33.735L67.47,34.94L66.867,34.94L66.867,35.542L66.265,35.542L66.265,36.145L65.663,36.145L65.663,36.747L65.06,36.747L65.06,39.759L65.663,39.759L65.663,40.361L66.867,40.361L66.867,39.759L69.277,39.759L69.277,39.157L70.482,39.157L70.482,38.554L71.687,38.554L71.687,37.952L72.892,37.952L72.892,37.349L73.494,37.349L73.494,36.747L75.301,36.747L75.301,36.145L76.506,36.145L76.506,35.542L77.108,35.542L77.108,34.94L78.916,34.94L78.916,34.337L80.12,34.337L80.12,33.735L81.325,33.735L81.325,33.133L82.53,33.133L82.53,32.53L83.133,32.53L83.133,31.928L84.94,31.928L84.94,31.325L86.145,31.325L86.145,32.53L86.747,32.53L86.747,33.133Z"/>
    </g>
</svg>
